X:1
T:Title
%%score { ( 1 3 ) | ( 2 4 ) }
L:1/8
M:2/2
K:F
V:1 treble nm="Grand Piano"
V:3 treble 
V:2 bass 
V:4 bass 
V:1
 z4[Q:1/4=124] [CAc]3 [CGB] | [CFA]2 [DGB]2 [CFA]2 [B,CG]2 | [A,CF]4 [A,C]2 [A,C]2 | %3
 [CF]4 [EG]2 [EG]2 | A4 A2 A2 | B2 B2 B2 d2 | c4 c2 A2 | F4 F2 [FA]2 | [EG]4 [EG]2 [FA]2 | %9
 [GB]2 [GB]2 [FA]2 [EG]2 | [CFA]4 [CFA]2 [CGB]2 | [FAc]2 [FAc]2 [CGB]2 [CFA]2 | %12
 [CEG]4 [CEA]2 [B,EG]2 | [A,F]2 [CEG]2 A2 B2 | c2 f2 d2 B2 | A4 [EA]3 [EG] | F8 | A6 G2 | F4 C4 | %19
 [Ac]6 [GB]2 | A4 F2 F2 | [EG]2 [EG]2 [EG]2 [FA]2 | [GB]4 [EG]2 [EG]2 | A2 A2 A2 B2 | c4 c2 c2 | %25
 d2 d2 d2 f2 | [Ac]2 A2 [=B,F]2 [B,FG]2 | [CFA]4 [CEA]3 [B,CG] |[M:2/4] [A,CF]4 |] %29
V:2
 z4 F,3 F, | F,2 F,2 F,2 F,2 | F,4 F,2 F,2 | A,,4 [C,C]2 [C,C]2 | [F,CF]4 [F,CF]2 [F,CF]2 | %5
 [B,DF]2 [B,DF]2 [B,DF]2 [B,F]2 | [A,CF]4 [A,CF]2[K:bass] [F,CF]2 | [F,A,C]4 [D,=B,]2 [D,B,]2 | %8
 [C,C]4 [C,C]2 [C,C]2 | [C,C]2 [C,C]2 [C,C]2 [C,C]2 | F,4 F,2 F,2 | F,2 F,2 E,2 F,2 | C,4 C,2 C,2 | %13
 D,2 C,2[K:treble] [F,CF]2 [G,CE]2 | [A,CF]4 [B,F]2 [B,DG]2 | [CF]4[K:bass] [C,C]3 [C,B,] | %16
 [F,A,]8 | [F,CF]6 [F,B,C]2 | [F,A,C]4 [F,A,]4 | [F,F]6 [F,D]2 | [F,CF]4 [F,A,C]2 [F,A,C]2 | %21
 [C,C]2 [C,C]2 [C,C]2 [C,C]2 | [C,C]4 [C,C]2 [C,C]2 | [F,CF]2 [F,CF]2 [F,CF]2 [F,CE]2 | %24
 [A,CF]4 [A,CF]2 [A,CF]2 | [B,F]2 [B,F]2 [B,F]2[K:bass] [B,,DB]2 | z2 F2 D,2 D,2 | C,4 C,3 C, | %28
[M:2/4] F,4 |] %29
V:3
 x8 | x8 | x8 | x8 | x8 | x8 | x8 | x8 | x8 | x8 | x8 | x8 | x8 | x8 | x8 | x8 | x8 | x8 | x8 | %19
 x8 | x8 | x8 | x8 | x8 | x8 | x8 | C4 z4 | x8 |[M:2/4] x4 |] %29
V:4
 x8 | x8 | x8 | x8 | x8 | x8 | x6[K:bass] x2 | x8 | x8 | x8 | x8 | x8 | x8 | x4[K:treble] x4 | x8 | %15
 x4[K:bass] x4 | x8 | x8 | x8 | x8 | x8 | x8 | x8 | x8 | x8 | x6[K:bass] x2 | F,4 z4 | x8 | %28
[M:2/4] x4 |] %29

